X:1
T:James Gibb editions
T:Praeparate corda vestra - Sermisy
T:#
%%score [ 1 2 3 4 ]
L:1/8
Q:1/4=90
M:4/4
K:C
V:1 treble nm="Soprano" snm="S"
V:2 treble nm="Alto" snm="A"
V:3 treble-8 nm="Tenor" snm="T"
V:4 bass nm="Bass" snm="B"
V:1
"^Claudin de Sermisy\n(1490-1562)""^Praeparate corda vestra" d6 d2 | f4 e4- | e4 e4 | %3
w: Prae- pa-|ra- te|* cor-|
 (g3 f ed f2- | fedc) d4 | c4 A4- |[M:4/4] A2 A2 A4 | (B3 c d4- | d2 cB c4- | c4) B4 | A4 z2 c2 | %11
w: da * * * *|* * * * ve-|stra Do\-|* mi- no,|Do\- * *||* mi-|no, et|
 d4 d4 | c4 e4 | f4 (dc de | f2 e3 d cB | c2 d4 c2) | d4 z4 | z8 | z8 | z8 | z4 z2 c2 | c2 c2 d4 | %22
w: ser- vi-|te il-|li so\- * * *|||li,||||et|li- be- ra-|
 (c6 _BA | _B4) A4- | A4 z4 | z4 z2 c2 | d2 d2 e4 | d6 d2 | c4 B4- | B4 c4 | (d3 e f2 e2- | %31
w: bit * *|* vos||de|ma- ni- bus|i- ni-|mi- co\-|* rum|ve\- * * *|
 e2 d4) c2 | d8- | d4 z4 | z8 | z8 | c6 d2 | e2 e2 (f3 e | d2) c2 _B4 | A8 | z8 | z8 | c6 d2 | %43
w: * * stro-|rum.||||Con- ver-|ti- mi- ni *|* ad e-|um|||in to-|
 e4 f2 (g2- | gf) (f4 e2) | f8 | z8 | z8 | z4 z2 A2- | A2 A2 d4 | c6 c2 | f2 f2 e2 (d2- | %52
w: to cor- de|* * ve\- *|stro,|||et|* au- fer-|te de-|os a- li- e\-|
 d2 c2 B4) | c4 z4 | z8 | z2 e2 e2 f2- | f2 e4 d2 | e4 z2 c2 | c2 c2 d4 | (c6 _BA | _B4 A4- | %61
w: |nos||de me- di\-|* o ve-|stri, et|li- be- ra-|bit * *|* vos|
 A4 z4 | z4 z2 c2 | d2 d2 e4 | d6 d2 | c4 B4- | B4 c4 | d3 e f2 e2- | e2 d4) c2 ||[M:3/4] d4 z2 |: %70
w: |de|ma- ni- bus|i- ni-|mi- co\-|* rum|ve\- * * *|* * stro-|rum,|
 A2 A2 A2 | G2 A4 | A4 z2 |[M:3/4] d2 d2 d2 | c4 B2- | B2 B2 B2 | c4 d2- | d2 (e4 | d4) ^c2 || %79
w: et li- be-|ra- bit|vos|de ma- ni-|bus i\-|* ni- mi-|co- rum|* ve\-|* stro-|
 d6 :| %80
w: rum.|
V:2
 z8 | z8 | A6 A2 | G4 A4- | A4 z2 (F2- | F2 E2) F4- |[M:4/4] F4 (F4 | G4) A4- | A4 A4- | A2 A2 G4 | %10
w: ||Prae- pa-|ra- te|* cor\-|* * da|* ve\-|* stra|* Do\-|* mi- no|
 (F3 E/D/ E2 A2- | A2 GF) G4 | A4 z2 A2- | A2 F2 _B4 | A4 (G2 A2- | AG F2) E2 (A2 | G2 FE FG A2- | %17
w: Do\- * * * *|* * * mi-|no, et|* ser- vi-|te il\- *|* * * li so\-||
 A2 G2) A4 | z8 | z8 | z2 A4 A2 | F4 D4 | A8 | G4 z2 F2 | F2 F2 E2 A2- | A2 F2 G2 A2 | D2 (G4 A2) | %27
w: * * li,|||et li-|be- ra-|bit|vos de|ma- ni- bus i\-|* ni- mi- co-|rum ve\- *|
 (F3 G) A4 | z2 E2 G4 | G4 A4 | A6 (A2 | _B2 G2) A4 | F8 | z8 | z4 z2 A2 | F2 E2 F2 (G2 | %36
w: stro\- * rum,|i- ni-|mi- co-|rum ve\-|* * stro-|rum.||Con-|ver- ti- mi- ni|
 E2) (A4 F2 | G2) (A4 B2- | B2 A4 G2) | A4 z4 | z8 | z2 A2 _B4 | A6 F2 | G2 (A4 _B2- | BA F2 G4) | %45
w: * ad *|* e\- *||um||in to-|to cor-|de ve\- *||
 F8 | z8 | z4 z2 G2- | G2 F2 E4 | D2 F4 G2 | (A3 G E2) (A2- | AG AB c2) (B2- | B2 A4 G2) | A4 z4 | %54
w: stro,||et|* au- fer-|te de- os|a\- * * li\-|* * * * * e\-||nos|
 z2 A2 A2 A2 | G2 (c2 B2 c2- | cB c2) A4 | z2 A4 A2 | F4 D4 | A8 | G4 z2 F2 | F2 F2 E2 A2- | %62
w: de me- di-|o ve\- * *|* * * stri,|et li-|be- ra-|bit|vos de|ma- ni- bus i\-|
 A2 F2 G2 A2 | D2 (G4 A2) | (F3 G) A4 | z2 E2 G4 | G4 A4 | A6 (A2 | _B2 G2) A4 ||[M:3/4] F4 z2 |: %70
w: * ni- mi- co-|rum ve\- *|stro\- * rum,|i- ni-|mi- co-|rum ve\-|* * stro-|rum,|
 F2 F2 F2 | G2 F4 | F4 z2 |[M:3/4] A2 A2 A2 | A2 F2 G2- | G2 G4 | A4 A2 | (A4 _B2 | G2) A4 || F6 :| %80
w: et li- be-|ra- bit|vos|de ma- ni-|bus i- ni\-|* mi-|co- rum|ve\- *|* stro-|rum.|
V:3
 z8 | z8 | z8 | z8 | d6 d2 | A4 d4 |[M:4/4][K:treble-8] z4 d4- | d2 e2 f4 | e8 | (f3 e dc d2- | %10
w: ||||Prae- pa-|ra- te|cor\-|* da ve-|stra|Do\- * * * *|
 d2 cB c2 f2- | fe dc d2) d2 | e8 | z8 | z8 | z8 | z2 d4 c2 | B4 (AB cd | ef g2) (cdec | %19
w: |* * * * * mi-|no,||||et ser-|vi- te * * *|* * * il\- * * *|
 de) f4 e2 | f8 | z4 z2 f2 | f2 f2 f4 | d8 | c2 c2 c2 c2 | d4 c2 A2 | B4 c4 | A4 f4 | e2 c2 (d4 | %29
w: * * li so-|li,|et|li- be- ra-|bit|vos de ma- ni-|bus i- ni-|mi- co-|rum i-|ni- mi- co\-|
 e8) | f4 (d2 e2 | f2 d2) e4 | d8 | f6 e2 | d2 d2 c2 (d2- | d2 c2) B4 | A4 z4 | z8 | z4 c4 | %39
w: |rum ve\- *|* * stro-|rum.|Con- ver-|ti- mi- ni ad|* * e-|um||in|
 f6 e2 | d4 c2 (d2- | dc f4 e2) | f8 | z8 | z2 d4 c2 | d4 A2 A2 | B2 c2 d2 f2 | e4 d4- | d4 z4 | %49
w: to- to|cor- de ve\-||stro,||et au-|fer- te de-|os a- li- e-|nos Do\-||
 z8 | z8 | z8 | z2 c2 d2 e2 | (AB cd e2) (f2- | f2 e4 d2 | e3 f g2 a2- | ag e2 f4) | e8 | %58
w: |||de me- di-|o * * * * ve\-||||stri,|
 z4 z2 f2 | f2 f2 f4 | d8 | c2 c2 c2 c2 | d4 c2 A2 | B4 c4 | A4 f4 | e2 c2 (d4 | e8 | f4 (d2 e2 | %68
w: et|li- be- ra-|bit|vos de ma- ni-|bus i- ni-|mi- co-|rum, i-|ni- mi- co\-||rum ve\- *|
 f2 d2) e4 ||[M:3/4] d4 z2 |: c2 c2 c2 | B2 d4 | c4 z2 |[M:3/4][K:treble-8] f2 f2 f2 | e2 c2 d2- | %75
w: * * stro-|rum,|et li- be-|ra- bit|vos|de ma- ni-|bus i- ni\-|
 d2 e4 | e4 f2- | f2 e2 f2 | d2) e4 || d6 :| %80
w: * mi-|co- rum|* ve\- *|* stro-|rum.|
V:4
 z8 | z8 | z8 | z8 | z8 | z8 |[M:4/4] D,6 D,2 | G,4 D,4 | A,8 | F,4 G,4 | A,8 | _B,6 B,2 | A,8 | %13
w: ||||||Prae- pa-|ra- te|cor-|da ve-|stra|Do- mi-|no,|
 z8 | z8 | z8 | z8 | E,4 F,2 A,2- | A,2 G,2 A,2 C2 | (_B,2 A,2 G,4) | F,8 | z8 | z2 F,2 F,2 F,2 | %23
w: ||||et ser- vi\-|* te il- li|so\- * *|li,||et li- be-|
 G,4 D,4 | F,4 z4 | z8 | z8 | D,4 D,2 D,2 | A,4 G,4 | E,2 E,2 A,4 | D,2 (D4 C2 | _B,4) A,4 | D,8 | %33
w: ra- bit|vos|||de ma- ni-|bus i-|ni- mi- co-|rum ve\- *|* stro-|rum.|
 D,6 E,2 | F,2 G,2 A,2 D,(E, | F,G, A,4) G,2 | A,4 z4 | z8 | z8 | D,6 E,2 | F,2 G,2 A,2 (_B,2- | %41
w: Con- ver-|ti- mi- ni ad *|* * * e-|um|||in to-|to cor- de ve\-|
 B,A, F,2 G,4) | F,8 | z8 | z8 | z2 D,4 F,2 | E,4 D,2 (D2- | D2 C2) B,2 (G,A, | =B,C D4) C2 | %49
w: |stro,|||et au-|fer- te de\-|* * os a\- *|* * * li-|
 (D4 _B,4) | A,8 | z8 | z8 | z2 F,2 E,2 D,2 | A,4 F,4 | E,2 A,2 G,2 F,2 | C4 D4 | A,8 | z8 | %59
w: e\- *|nos|||de me- di-|o ve-|stri, de me- di-|o ve-|stri,||
 z2 F,2 F,2 F,2 | G,4 D,4 | F,4 z4 | z8 | z8 | D,4 D,2 D,2 | A,4 G,4 | E,2 E,2 A,4 | D,2 (D4 C2 | %68
w: et li- be-|ra- bit|vos|||de ma- ni-|bus i-|ni- mi- co-|rum ve\- *|
 _B,4) A,4 ||[M:3/4] D,4 z2 |: F,2 F,2 F,2 | G,2 D,4 | F,4 z2 |[M:3/4] D,2 D,2 D,2 | A,4 G,2- | %75
w: * stro-|rum,|et li- be-|ra- bit|vos|de ma- ni-|bus i\-|
 G,2 E,2 E,2 | A,4 D,2 | (D2 C2 _B,2- | B,2) A,4 || D,6 :| %80
w: * ni- mi-|co- rum|ve\- * *|* stro-|rum.|

